X:1
T:Title
%%score { ( 1 3 ) | ( 2 4 ) }
L:1/8
Q:1/4=120
M:4/2
K:A
V:1 treble nm="Grand Piano"
V:3 treble 
V:2 bass 
V:4 bass 
V:1
 [CE]4 [A,C]2 [B,D]2 [CE]6 [CE]2 | [=CF]4[K:bass] [E,^CE]2 [=C^D]2[K:treble] ^C4- [Cc]4 | %2
w: James~Remington~Fairlamb * * * *||
 c4 B2 G2 B4 A2 [A,CG]2 | [A,^DF]4 D2- [DA]2 B8 | [CE]4 [A,C]2 [B,D]2 [CE]6 [CE]2 | %5
w: |||
 [C=G]4 [F,CF]2 [Ec]2 c4 [B,F]4 | [DF]4 G2 G2 B4 A2 F2 |[M:12/4] z4 F2 z6[K:bass] z12 | %8
w: |||
[M:8/4] [E,E]4- [E,-CE-]2 [E,DE]2 [A,CE]8 |] %9
w: |
V:2
 [A,,E,]4 [A,,E,]2 [A,,E,]2 [A,,E,]6 [A,,E,]2 | [A,,^D,]4 z2 F,2 z4 A,4 | %2
 [E,G,D]4 [E,G,D]2 [^E,B,D]2 [F,A,C]6 A,,2 | B,,4 z2 F,2 [E,G,D]8 | %4
 [A,,A,]4 [A,,E,]2 [A,,E,]2 [A,,E,]6 [A,,E,]2 | [^A,,E,]4 z2 =G,2 F,4 z4 | %6
 [B,,B,]4 [E,B,D]2 [^E,B,D]2 [F,A,C]6 [^D,A,=C]2 |[M:12/4] .[E,A,C]6 E2 A,,4- A,,4 z2 z6 | %8
[M:8/4] z4 A,2 B,2 A,,8 |] %9
V:3
 x16 | z8[K:bass][K:treble] [E,E]4 z4 | x16 | z4 .[G,G]4 z8 | x16 | z8 ^D8 | x16 | %7
[M:12/4] E4 [G,D]2- [G,D]2[K:bass] [A,CE]4- [A,CE]4 z2 z6 |[M:8/4] [G,B,]4 z4 z8 |] %9
V:4
 x16 | z4 A,,4 A,,8 | x16 | z4 B,,4 z8 | x16 | z4 ^A,,4 B,,8 | x16 | %7
[M:12/4] z4 [E,,E,]2- [E,,E,]2 z2 z2 z12 |[M:8/4] E,,8 z8 |] %9

